packages/foundations/assets/icons/functional/images/food/cup_32.svg

<svg width="32" height="32" viewBox="0 0 32 32" fill="none" xmlns="http://www.w3.org/2000/svg">
<g clip-path="url(#clip0_185_1045)">
<path fill-rule="evenodd" clip-rule="evenodd" d="M2 29.0156C2 29.5469 2.4375 29.9844 2.9688 29.9844H29.0312C29.5625 29.9844 30 29.5469 30 29.0156C30 28.4531 29.5625 28.0156 29.0312 28.0156H2.9688C2.4375 28.0156 2 28.4531 2 29.0156ZM6.0312 22.0781C6.0312 24.2344 7.7812 25.9844 9.9375 25.9844H20.0625C22.1875 25.9844 23.9688 24.2344 23.9688 22.1094V19.8281H25.0938C27.25 19.8281 29 18.0781 29 15.9219C29 13.7344 27.25 12.0156 25.0938 12.0156H6.0312V22.0781ZM7.9688 22.1094V13.9844H22V22.1094C22 23.1719 21.125 24.0469 20.0625 24.0469H9.9375C8.875 24.0469 7.9688 23.1719 7.9688 22.1094ZM10 9.01559C10 9.54689 10.4375 9.98439 11 9.98439C11.5312 9.98439 11.9688 9.54689 11.9688 9.01559V4.98439C11.9688 4.45309 11.5312 4.01559 11 4.01559C10.4375 4.01559 10 4.45309 10 4.98439V9.01559ZM14 9.04689C14 9.57809 14.4375 10.0156 14.9688 10.0156C15.5 10.0156 15.9375 9.57809 15.9375 9.04689V2.98439C15.9375 2.45309 15.5 2.01559 14.9688 2.01559C14.4375 2.01559 14 2.45309 14 2.98439V9.04689ZM18 9.10939C18 9.64059 18.4375 10.0781 18.9688 10.0781C19.5 10.0781 19.9375 9.64059 19.9375 9.10939V4.98439C19.9375 4.45309 19.5 4.01559 18.9688 4.01559C18.4375 4.01559 18 4.45309 18 4.98439V9.10939ZM23.9688 17.8594V13.9844H25.0938C26.1875 13.9844 27.0625 14.8594 27.0625 15.9219C27.0625 16.9844 26.1875 17.8594 25.0938 17.8594H23.9688Z" fill="#1A1C1F"/>
</g>
<defs>
<clipPath id="clip0_185_1045">
<rect width="32" height="32" fill="white"/>
</clipPath>
</defs>
</svg>

<svg xmlns="http://www.w3.org/2000/svg" width="32" height="32" fill="none"><g clip-path="url(#a)"><path fill="#1A1C1F" fill-rule="evenodd" d="M2 29.016c0 .53.438.968.969.968H29.03a.974.974 0 0 0 .969-.968.98.98 0 0 0-.969-1H2.97a.98.98 0 0 0-.969 1m4.031-6.938a3.91 3.91 0 0 0 3.907 3.906h10.125c2.125 0 3.906-1.75 3.906-3.875v-2.28h1.125A3.91 3.91 0 0 0 29 15.921a3.89 3.89 0 0 0-3.906-3.906H6.03zm1.938.031v-8.125H22v8.125a1.947 1.947 0 0 1-1.937 1.938H9.938c-1.063 0-1.97-.875-1.97-1.938M10 9.016a.98.98 0 0 0 1 .968.974.974 0 0 0 .969-.968V4.984A.974.974 0 0 0 11 4.016a.98.98 0 0 0-1 .968zm4 .03c0 .532.438.97.969.97a.974.974 0 0 0 .969-.97V2.985a.974.974 0 0 0-.97-.968.974.974 0 0 0-.968.968zm4 .063c0 .532.438.97.969.97a.974.974 0 0 0 .968-.97V4.984a.974.974 0 0 0-.968-.968.974.974 0 0 0-.969.968zm5.969 8.75v-3.875h1.125c1.093 0 1.968.875 1.968 1.938s-.875 1.937-1.968 1.937z" clip-rule="evenodd"/></g><defs><clipPath id="a"><path fill="#fff" d="M0 0h32v32H0z"/></clipPath></defs></svg>
